src/resources/assets/person.svg

<svg width="16" height="16" xmlns="http://www.w3.org/2000/svg">
    <path d="M 6.7823711,9.2981812 C 6.5593328,9.568172 6.4140556,9.904769 6.3808379,10.273673 l -3.4188093,-1.77e-4 c -0.2688831,0 -0.4868559,0.217973 -0.4868559,0.486856 v 0.375557 c 0,0.348246 0.124243,0.685063 0.3503911,0.949889 0.7654662,0.896405 1.9397917,1.378595 3.5552405,1.433694 0.032059,0.370642 0.177612,0.708897 0.4015668,0.979998 l -0.083753,5.02e-4 c -2.0451728,0 -3.596356,-0.588469 -4.6146332,-1.78093 C 1.7070736,12.277688 1.5,11.71632 1.5,11.135909 V 10.760352 C 1.5,9.98654 2.1011612,9.3531367 2.8619291,9.3016965 l 0.1000995,-0.00337 z M 9.786665,7.6730871 h 1.950346 c 0.42076,0 0.766833,0.3197752 0.808448,0.7295558 l 0.0042,0.083088 -2.98e-4,0.8123999 0.812942,2.44e-4 C 13.990634,9.2983749 14.5,9.807741 14.5,10.436076 v 2.925518 c 0,0.628336 -0.509366,1.137702 -1.137701,1.137702 H 8.1613776 c -0.6283352,0 -1.1377015,-0.509366 -1.1377015,-1.137702 v -2.925518 c 0,-0.628335 0.5093663,-1.1377011 1.1377015,-1.1377011 l 0.8123458,-2.44e-4 2.981e-4,-0.8123999 c 0,-0.4207602 0.3197751,-0.7668328 0.7295555,-0.8084483 l 0.08309,-0.0042 h 1.950346 z m 3.575634,2.6004609 H 8.1613776 c -0.089762,0 -0.1625288,0.07277 -0.1625288,0.162528 v 2.925518 c 0,0.08976 0.072767,0.162529 0.1625288,0.162529 h 5.2009214 c 0.08976,0 0.162528,-0.07277 0.162528,-0.162529 v -2.925518 c 0,-0.08976 -0.07277,-0.162528 -0.162528,-0.162528 z M 11.574482,8.6482598 H 9.949194 l -2.98e-4,0.6498711 h 1.625288 z M 6.6986186,1.5 c 1.7952433,0 3.2505754,1.4553323 3.2505754,3.2505756 0,1.7952433 -1.4553321,3.2505756 -3.2505754,3.2505756 -1.7952434,0 -3.2505756,-1.4553323 -3.2505756,-3.2505756 C 3.448043,2.9553323 4.9033752,1.5 6.6986186,1.5 Z m 0,0.9751727 c -1.2566704,0 -2.275403,1.0187326 -2.275403,2.2754029 0,1.2566703 1.0187326,2.2754029 2.275403,2.2754029 1.2566703,0 2.2754029,-1.0187326 2.2754029,-2.2754029 0,-1.2566703 -1.0187326,-2.2754029 -2.2754029,-2.2754029 z"
          fill="#ddd" stroke-width=".65"/>
</svg>

<?xml version="1.0" encoding="UTF-8"?>
<svg xmlns="http://www.w3.org/2000/svg" xmlns:xlink="http://www.w3.org/1999/xlink" width="16px" height="16px" viewBox="0 0 16 16" version="1.1">
<g id="surface1">
<path style=" stroke:none;fill-rule:nonzero;fill:rgb(86.666667%,86.666667%,86.666667%);fill-opacity:1;" d="M 6.78125 9.296875 C 6.558594 9.566406 6.414062 9.90625 6.378906 10.273438 L 2.960938 10.273438 C 2.691406 10.273438 2.476562 10.492188 2.476562 10.761719 L 2.476562 11.136719 C 2.476562 11.484375 2.597656 11.820312 2.824219 12.085938 C 3.589844 12.980469 4.765625 13.464844 6.378906 13.519531 C 6.414062 13.890625 6.558594 14.226562 6.78125 14.5 L 6.699219 14.5 C 4.652344 14.5 3.101562 13.910156 2.085938 12.71875 C 1.707031 12.277344 1.5 11.714844 1.5 11.136719 L 1.5 10.761719 C 1.5 9.988281 2.101562 9.351562 2.863281 9.300781 L 2.960938 9.296875 Z M 9.785156 7.671875 L 11.738281 7.671875 C 12.15625 7.671875 12.503906 7.992188 12.546875 8.402344 L 12.550781 8.484375 L 12.550781 9.296875 L 13.363281 9.296875 C 13.992188 9.296875 14.5 9.808594 14.5 10.4375 L 14.5 13.363281 C 14.5 13.988281 13.992188 14.5 13.363281 14.5 L 8.160156 14.5 C 7.53125 14.5 7.023438 13.988281 7.023438 13.363281 L 7.023438 10.4375 C 7.023438 9.808594 7.53125 9.296875 8.160156 9.296875 L 8.972656 9.296875 L 8.972656 8.484375 C 8.972656 8.066406 9.292969 7.71875 9.703125 7.675781 L 9.785156 7.671875 L 11.738281 7.671875 Z M 13.363281 10.273438 L 8.160156 10.273438 C 8.070312 10.273438 8 10.347656 8 10.4375 L 8 13.363281 C 8 13.453125 8.070312 13.523438 8.160156 13.523438 L 13.363281 13.523438 C 13.453125 13.523438 13.523438 13.453125 13.523438 13.363281 L 13.523438 10.4375 C 13.523438 10.347656 13.453125 10.273438 13.363281 10.273438 Z M 11.574219 8.648438 L 9.949219 8.648438 L 9.949219 9.296875 L 11.574219 9.296875 Z M 6.699219 1.5 C 8.492188 1.5 9.949219 2.957031 9.949219 4.75 C 9.949219 6.546875 8.492188 8 6.699219 8 C 4.902344 8 3.449219 6.546875 3.449219 4.75 C 3.449219 2.957031 4.902344 1.5 6.699219 1.5 Z M 6.699219 2.476562 C 5.441406 2.476562 4.421875 3.492188 4.421875 4.75 C 4.421875 6.007812 5.441406 7.027344 6.699219 7.027344 C 7.957031 7.027344 8.972656 6.007812 8.972656 4.75 C 8.972656 3.492188 7.957031 2.476562 6.699219 2.476562 Z M 6.699219 2.476562 "/>
</g>
</svg>
